src/assets/icons/weeks,simple,43.svg

<svg width="48" height="48" viewBox="0 0 48 48" fill="none" xmlns="http://www.w3.org/2000/svg">
<rect opacity="0.2" x="5" y="5" width="38" height="38" rx="4" fill="black"/>
<path d="M5 13C5 9.22876 5 7.34315 6.17157 6.17157C7.34315 5 9.22876 5 13 5H35C38.7712 5 40.6569 5 41.8284 6.17157C43 7.34315 43 9.22876 43 13V15H5V13Z" fill="black"/>
<path d="M9.1076 34.9318H17.4854V38H21.0139V34.9318H23.1786V31.9744H21.0139V20.5455H16.3945L9.1076 32.0256V34.9318ZM17.5536 31.9744H12.8235V31.8381L17.4173 24.5682H17.5536V31.9744ZM32.0891 38.2386C36.0096 38.2386 38.8136 36.0824 38.805 33.0994C38.8136 30.9261 37.4329 29.375 34.8675 29.0511V28.9148C36.8192 28.5653 38.1658 27.1847 38.1573 25.2244C38.1658 22.4716 35.7539 20.3068 32.1403 20.3068C28.5607 20.3068 25.8675 22.4034 25.8164 25.4205H29.3533C29.396 24.0909 30.6147 23.2301 32.1232 23.2301C33.6147 23.2301 34.6119 24.1335 34.6033 25.446C34.6119 26.8182 33.4442 27.7472 31.7653 27.7472H30.1374V30.4574H31.7653C33.7425 30.4574 34.9783 31.446 34.9698 32.8523C34.9783 34.2415 33.7852 35.196 32.0977 35.196C30.4698 35.196 29.2511 34.3438 29.1829 33.0653H25.467C25.5266 36.1165 28.2539 38.2386 32.0891 38.2386Z" fill="black"/>
</svg>

<svg xmlns="http://www.w3.org/2000/svg" width="48" height="48" fill="none" viewBox="0 0 48 48">
  <rect width="38" height="38" x="5" y="5" fill="#000" opacity=".2" rx="4"/>
  <path fill="#000" d="M5 13c0-3.771 0-5.657 1.172-6.828C7.343 5 9.229 5 13 5h22c3.771 0 5.657 0 6.828 1.172C43 7.343 43 9.229 43 13v2H5v-2zM9.108 34.932h8.377V38h3.529v-3.068h2.165v-2.958h-2.165V20.546h-4.62l-7.286 11.48v2.906zm8.446-2.958h-4.73v-.136l4.593-7.27h.137v7.406zm14.535 6.265c3.92 0 6.725-2.157 6.716-5.14.009-2.173-1.372-3.724-3.938-4.048v-.136c1.952-.35 3.299-1.73 3.29-3.69.009-2.753-2.403-4.918-6.017-4.918-3.58 0-6.273 2.096-6.324 5.114h3.537c.043-1.33 1.262-2.19 2.77-2.19 1.492 0 2.489.902 2.48 2.215.009 1.372-1.159 2.301-2.838 2.301h-1.628v2.71h1.628c1.977 0 3.213.989 3.205 2.395.008 1.39-1.185 2.344-2.872 2.344-1.628 0-2.847-.852-2.915-2.13h-3.716c.06 3.05 2.787 5.173 6.622 5.173z"/>
</svg>
